data/resources/images/flags/Hebrew.svg

<svg height="800" width="1100" xmlns="http://www.w3.org/2000/svg"><path d="m0 0h1100v800h-1100z" fill="#fff"/><path d="m0 75h1100v125h-1100z" fill="#0038b8"/><path d="m0 600h1100v125h-1100z" fill="#0038b8"/><path d="m423.81566 472.85253h252.36869l-126.18434-218.55761zm126.18435 72.85255 126.1843-218.55765h-252.36865z" fill="none" stroke="#0038b8" stroke-width="27.5"/></svg>

<svg xmlns="http://www.w3.org/2000/svg" width="1100" height="800"><path d="M 0,0 H 1100 V 800 H 0 Z" fill="#fff"/><path d="M 0,75 H 1100 V 200 H 0 Z" fill="#0038b8"/><path d="M 0,600 H 1100 V 725 H 0 Z" fill="#0038b8"/><path d="M 423.81566,472.85253 H 676.18435 L 550.00001,254.29492 Z m 126.18435,72.85255 126.1843,-218.55765 H 423.81566 Z" fill="none" stroke="#0038b8" stroke-width="27.5"/></svg>
